Sources/FrostedUI/Resources/Icons.xcassets/microphoneOff32.imageset/microphone-off-32.svg

<svg width="32" height="32" viewBox="0 0 32 32" fill="none" xmlns="http://www.w3.org/2000/svg" data-fui-icon="true">
  <path
    d="M2.96973 2.96973C3.26263 2.67689 3.7374 2.67685 4.03027 2.96973L29.0303 27.9697C29.3231 28.2626 29.3231 28.7374 29.0303 29.0303C28.7374 29.3231 28.2626 29.3231 27.9697 29.0303L23.6488 24.7093C23.4765 24.5371 23.2058 24.5149 23.0024 24.649C21.3126 25.7635 19.3432 26.4885 17.2204 26.6905C16.9567 26.7156 16.75 26.9335 16.75 27.1984V28C16.75 28.2761 16.9739 28.5 17.25 28.5H21C21.414 28.5002 21.75 28.8359 21.75 29.25C21.75 29.6641 21.414 29.9998 21 30H11C10.586 29.9998 10.25 29.6641 10.25 29.25C10.25 28.8359 10.586 28.5002 11 28.5H14.75C15.0261 28.5 15.25 28.2761 15.25 28V27.1984C15.25 26.9335 15.0427 26.7156 14.779 26.6905C8.31036 26.0758 3.25 20.6296 3.25 14C3.25 13.5859 3.58597 13.2502 4 13.25C4.41405 13.2502 4.75 13.5859 4.75 14C4.75 20.2131 9.78698 25.2498 16 25.25C18.1068 25.2499 20.0773 24.669 21.7624 23.6604C22.0323 23.4989 22.0678 23.1283 21.8454 22.9059L20.1814 21.242C20.0228 21.0833 19.7786 21.0513 19.5782 21.152C18.5014 21.6933 17.2864 22 15.999 22C11.5811 21.9995 7.99902 18.418 7.99902 14V10C7.99902 9.78099 8.00868 9.56413 8.0265 9.34964C8.03908 9.1982 7.98725 9.04779 7.87979 8.94034L2.96973 4.03027C2.67683 3.73738 2.67683 3.26262 2.96973 2.96973ZM28 13.25C28.414 13.2502 28.75 13.5859 28.75 14C28.75 17.0289 27.692 19.8093 25.9276 21.9961C25.7462 22.221 25.411 22.2313 25.2067 22.027L24.8489 21.6692C24.6637 21.4841 24.6538 21.1881 24.8165 20.983C26.3387 19.0644 27.25 16.6393 27.25 14C27.25 13.5859 27.586 13.2502 28 13.25ZM9.49902 14C9.49902 17.5896 12.4096 20.4995 15.999 20.5C16.7535 20.5 17.4777 20.3705 18.1511 20.1334C18.4762 20.019 18.5474 19.608 18.3037 19.3642L10.3526 11.4131C10.0376 11.0981 9.49902 11.3212 9.49902 11.7667V14ZM15.999 2C20.4173 2 23.999 5.58172 23.999 10V14C23.999 15.7091 23.4616 17.2919 22.5483 18.5915C22.3777 18.8343 22.0313 18.8516 21.8215 18.6418L21.4574 18.2777C21.2796 18.0999 21.2633 17.8189 21.4033 17.6099C22.0948 16.5773 22.499 15.3361 22.499 14V10C22.499 6.41015 19.5889 3.5 15.999 3.5C13.723 3.5003 11.72 4.67045 10.5589 6.44184C10.3731 6.72534 9.96865 6.78896 9.72895 6.54926L9.38473 6.20504C9.22327 6.04358 9.19037 5.79226 9.31609 5.60164C10.7469 3.43213 13.2059 2.00029 15.999 2Z"
    fill="currentColor"
  />
</svg>

<svg xmlns="http://www.w3.org/2000/svg" width="32" height="32" fill="none" data-fui-icon="true" viewBox="0 0 32 32"><path fill="currentColor" d="M2.97 2.97a.75.75 0 0 1 1.06 0l25 25a.75.75 0 0 1-1.06 1.06l-4.321-4.32a.514.514 0 0 0-.647-.061 12.66 12.66 0 0 1-5.782 2.041.515.515 0 0 0-.47.508V28a.5.5 0 0 0 .5.5H21a.75.75 0 0 1 0 1.5H11a.75.75 0 0 1 0-1.5h3.75a.5.5 0 0 0 .5-.5v-.802a.516.516 0 0 0-.471-.508C8.31 26.077 3.25 20.63 3.25 14a.75.75 0 0 1 1.5 0c0 6.213 5.037 11.25 11.25 11.25 2.107 0 4.077-.581 5.762-1.59a.48.48 0 0 0 .083-.754l-1.664-1.664a.52.52 0 0 0-.603-.09A7.95 7.95 0 0 1 16 22a8 8 0 0 1-8-8v-4q0-.329.028-.65a.52.52 0 0 0-.147-.41L2.97 4.03a.75.75 0 0 1 0-1.06M28 13.25a.75.75 0 0 1 .75.75 12.7 12.7 0 0 1-2.822 7.996.484.484 0 0 1-.721.031l-.358-.358a.517.517 0 0 1-.032-.686A11.2 11.2 0 0 0 27.25 14a.75.75 0 0 1 .75-.75M9.499 14a6.5 6.5 0 0 0 8.652 6.133c.325-.114.396-.525.153-.769l-7.951-7.95a.5.5 0 0 0-.854.353zm6.5-12a8 8 0 0 1 8 8v4c0 1.71-.537 3.292-1.45 4.592a.475.475 0 0 1-.727.05l-.365-.364a.53.53 0 0 1-.054-.668A6.47 6.47 0 0 0 22.5 14v-4a6.5 6.5 0 0 0-11.94-3.558c-.186.283-.59.347-.83.107l-.344-.344a.48.48 0 0 1-.069-.603A8 8 0 0 1 16 2"/></svg>
